images/icon/gift.svg

<svg xmlns="http://www.w3.org/2000/svg" width="1024" height="1024" class="colorable-icon" overflow="visible" viewBox="3.637 31.983 1016.271 960.282"><path fill="none" stroke="#fff" stroke-linecap="round" stroke-linejoin="round" stroke-width="45" d="M59.227 510.11c-9.055-1.147-18.427-3.889-30.931-10.127-6.73-5.152-12.142-10.788-16.221-16.51-2.961-5.866-6.11-17.135-7.28-29.468L4 376.628m956.011 502.526c-.671 17.941-2.15 30.08-4.833 42.082-4.202 12.027-10.509 24.476-14.586 30.62-10.226 11.788-16.129 17.119-22.209 21.773-12.436 7.307-30.786 14.059-48.628 16.879l-47.834 1.168m-639.573.589c-29.762-1.721-41.601-4.057-53.629-7.962-12.063-5.905-23.747-14.104-29.25-18.972-10.307-11.19-14.895-17.331-22.184-29.605-4.939-11.565-8.274-23.125-10.763-40.688l-.771-53.742m883.675-522.038c17.805.791 29.745 2.926 35.709 4.803 12.034 6.544 17.71 11.528 22.539 17.3 6.288 11.918 10.724 29.684 12.234 47.632l-.482 29.888m0 0c-.581 41.97-3.568 54.168-6.35 60.342-8.373 12.024-19.424 21.633-31.513 27.602l-9.484 2.68m-482.27-191.418c132.887-.048 168.831-1.08 205.334-3.35 61.416-20.571 88.931-32.785 113.108-46.793 26.801-20.247 45.386-38.488 54.525-49.654 7.435-10.927 18.042-31.161 21.817-41.309 4.295-15.793 6.14-28.699 6.532-40.709-1.064-12.3-2.732-20.349-6.407-32.544-2.921-6.907-8.006-16.501-14.422-26.364-13.32-14.971-22.616-22.779-30.078-27.868-7.872-4.603-21.158-10.621-40.655-16.016-11.071-1.558-19.868-1.863-31.866-1.087-11.882 1.988-23.151 4.977-34.905 9.285-17.284 8.829-34.963 21.225-52.464 37.125-21.105 23.114-39.346 46.8-55.429 70.564l-22.085 35.779m-224.881-62.953c-18.557-23.778-34.13-41.293-51.979-57.638-13.943-10.084-30.136-19.488-44.278-25.408-17.925-5.077-39.253-7.554-57.111-6.382-17.997 4.341-34.326 11.298-51.483 22.611-12.779 11.828-24.351 26.73-33.343 44.028-5.073 17.024-6.814 32.124-6.548 47.551 2.147 15.721 6.576 31.934 12.8 46.92 9.113 15.828 19.378 29.538 30.52 41.591 13.361 12.344 29.23 24.595 46.155 35.655 18.539 10.101 35.297 17.819 52.163 24.448l63.649 20.514m620.73 193.382-899.981.645m900.017 2.454.767 366.59m-446.762-561.29-.033 674.091M682.17 319.03l267.256.228m-438.655-10.355-132.838-186.71m443.988 869.483-639.573.589M65.751 841.296l-.277-330.92M3.702 376.643a54.722 54.722 0 0 1 70.937-54.91m.523-1.68 414.647-1.966m113.005-132.941-89.228 121.063"/></svg>

<svg xmlns="http://www.w3.org/2000/svg" width="1024" height="1024" viewBox="3.637169122695923 31.98284149169922 1016.2708740234375 960.2821655273438" class="colorable-icon" data-export-recolorable-svg="true" overflow="visible"><g fill="none" stroke="white" stroke-width="45" stroke-linecap="round" stroke-linejoin="round"><path d="M 59.227,510.11 C 50.172,508.963 40.8,506.221 28.296,499.983 C 21.566,494.831 16.154,489.195 12.075,483.473 C 9.114,477.607 5.965,466.338 4.795,454.005 L 4.0,376.628" data-line="nan" stroke-width="45.0"></path><path d="M 960.011,879.154 C 959.34,897.095 957.861,909.234 955.178,921.236 C 950.976,933.263 944.669,945.712 940.592,951.856 C 930.366,963.644 924.463,968.975 918.383,973.629 C 905.947,980.936 887.597,987.688 869.755,990.508 L 821.921,991.676" data-line="nan" stroke-width="45.0"></path><path d="M 182.348,992.265 C 152.586,990.544 140.747,988.208 128.719,984.303 C 116.656,978.398 104.972,970.199 99.469,965.331 C 89.162,954.141 84.574,948.0 77.285,935.726 C 72.346,924.161 69.011,912.601 66.522,895.038 L 65.751,841.296" data-line="nan" stroke-width="45.0"></path><path d="M 949.426,319.258 C 967.231,320.049 979.171,322.184 985.135,324.061 C 997.169,330.605 1002.845,335.589 1007.674,341.361 C 1013.962,353.279 1018.398,371.045 1019.908,388.993 L 1019.426,418.881" data-line="nan" stroke-width="45.0"></path><path d="M 1019.426,418.881 C 1018.845,460.851 1015.858,473.049 1013.076,479.223 C 1004.703,491.247 993.652,500.856 981.563,506.825 L 972.079,509.505" data-line="nan" stroke-width="45.0"></path><path d="M 489.809,318.087 C 622.696,318.039 658.64,317.007 695.143,314.737 C 756.559,294.166 784.074,281.952 808.251,267.944 C 835.052,247.697 853.637,229.456 862.776,218.29 C 870.211,207.363 880.818,187.129 884.593,176.981 C 888.888,161.188 890.733,148.282 891.125,136.272 C 890.061,123.972 888.393,115.923 884.718,103.728 C 881.797,96.821 876.712,87.227 870.296,77.364 C 856.976,62.393 847.68,54.585 840.218,49.496 C 832.346,44.893 819.06,38.875 799.563,33.48 C 788.492,31.922 779.695,31.617 767.697,32.393 C 755.815,34.381 744.546,37.37 732.792,41.678 C 715.508,50.507 697.829,62.903 680.328,78.803 C 659.223,101.917 640.982,125.603 624.899,149.367 L 602.814,185.146" data-line="nan" stroke-width="45.0"></path><path d="M 377.933,122.193 C 359.376,98.415 343.803,80.9 325.954,64.555 C 312.011,54.471 295.818,45.067 281.676,39.147 C 263.751,34.07 242.423,31.593 224.565,32.765 C 206.568,37.106 190.239,44.063 173.082,55.376 C 160.303,67.204 148.731,82.106 139.739,99.404 C 134.666,116.428 132.925,131.528 133.191,146.955 C 135.338,162.676 139.767,178.889 145.991,193.875 C 155.104,209.703 165.369,223.413 176.511,235.466 C 189.872,247.81 205.741,260.061 222.666,271.121 C 241.205,281.222 257.963,288.94 274.829,295.569 L 338.478,316.083" data-line="nan" stroke-width="45.0"></path><path d="M 959.208,509.465 L 59.227,510.11" data-line="0.0" stroke-width="45.0"></path><path d="M 959.244,512.564 L 960.011,879.154" data-line="1.0" stroke-width="45.0"></path><path d="M 513.249,317.864 L 513.216,991.955" data-line="2.0" stroke-width="45.0"></path><path d="M 682.17,319.03 L 949.426,319.258" data-line="5.0" stroke-width="45.0"></path><path d="M 510.771,308.903 L 377.933,122.193" data-line="9.0" stroke-width="45.0"></path><path d="M 821.921,991.676 L 182.348,992.265" data-line="11.0" stroke-width="45.0"></path><path d="M 65.751,841.296 L 65.474,510.376" data-line="13.0" stroke-width="45.0"></path><path d="M 3.7021646288626684,376.6425293473087 A 54.72172813425809,54.72172813425809 0 0,1 74.63873718706112,321.7322138788144" data-line="16.0" stroke-width="45.0"></path><path d="M 75.162,320.053 L 489.809,318.087" data-line="17.0" stroke-width="45.0"></path><path d="M 602.814,185.146 L 513.586,306.209" data-line="19.0" stroke-width="45.0"></path></g></svg>
